X: 1002
M: 2/4
L: 1/16
K: D
|:\
cccz cccz | cccz cccz | A2ce a4 | A2ce a4 |\
f2e2d2f2 | e2d2c2e2 | dddz dddz | d4 z4 :|
|:\
e2e2f2e2 | c2c2d2c2 | B2B2f3e | c3^G ABcd |\
e2e2f2e2 | c2c2d2c2 | B2B2f2e2 | A2z2 a4 :|
|:\
(F4A2)d2 | (F4A2)d2 | (G4B2)d2 | (F4A2)d2 |\
(E4G2)B2 | (A4d2)f2 | e2^gg g2g2 | a2z2 a4 |
(F4A2)d2 | (F4A2)d2 | (G4B2)d2 | (F4A2)d2 |\
(E4G2)B2 | (A4d2)f2 | e2AA B2c2 | "^da Capo"d6 z2 :|

